assets/img/jaxon-placeholder-logo-01.1.2.svg

<svg fill="none" height="38" viewBox="0 0 146 38" width="146" xmlns="http://www.w3.org/2000/svg"><g fill="#f4f4f4"><path d="m27.2804 16.2153c2.7855 0 3.4122 1.2099 3.4122 2.719 0 1.5995-.7581 2.7455-3.4007 2.7455-2.6257 0-3.3847-1.0794-3.3847-2.7455 0-1.6396.8273-2.719 3.3732-2.719z"/><path d="m56.3898 16.2153c2.7855 0 3.4122 1.2099 3.4122 2.719 0 1.5995-.759 2.7455-3.4007 2.7455-2.6249 0-3.3847-1.0794-3.3847-2.7455 0-1.6396.8273-2.719 3.3732-2.719z"/><path clip-rule="evenodd" d="m2.61719 34.662v-31.47059h140.76481v31.47059zm67.08841-1.7754h71.9014v-27.91985h-71.9014zm-42.4127-8.5278c4.9452 0 7.0241-2.1331 7.0241-5.4645 0-3.3856-2.3417-5.3979-7.0241-5.3979-4.6106 0-7.0375 2.1854-7.0375 5.3979 0 3.6252 2.5459 5.4645 7.0375 5.4645zm-17.1933-10.6228v10.463h9.9809v-2.7864h-6.3699v-7.6766zm35.3878 10.463-.0932-1.0137c-1.208.8621-2.6783 1.277-4.1587 1.1735-2.2254 0-4.0788-.6666-5.1183-2.0124-.6856-.9824-1.0318-2.1618-.9862-3.3589-.039-1.172.3192-2.3228 1.0164-3.2657 1.0519-1.3058 2.9586-2.1722 5.7974-2.1722 3.2657 0 5.1848.9995 6.0104 2.679.1772.3956.2813.8199.3071 1.2525h-3.4548c-.0871-.2629-.2491-.4946-.466-.6666-.6882-.4563-1.51-.6673-2.3328-.5992-.4827-.0585-.9723-.0139-1.4364.1308-.464.1448-.8922.3865-1.2559.7089-.4132.5655-.6071 1.2616-.546 1.9591-.0479.6655.1304 1.3277.506 1.8792.3671.3421.8035.6011 1.2794.7598.4761.1586.9805.2132 1.4795.1599.9909.0806 1.9747-.2251 2.7456-.8531.1655-.207.2797-.4504.3328-.7101h-3.7175v-2.2485h6.9567v6.1977zm10.9157.1598c4.9444 0 7.0242-2.1331 7.0242-5.4645 0-3.3856-2.3453-5.3979-7.0242-5.3979-4.6105 0-7.0374 2.1854-7.0374 5.3979 0 3.6252 2.5458 5.4645 7.0374 5.4645z" fill-rule="evenodd"/><path d="m75.7891 24.159v-10.463h2.5742v10.463z"/><path d="m91.5824 19.7872c-.6525.8531-1.7754 1.2428-3.3581 1.2525-.3338 0-4.7588-.0133-4.7588-.0133v3.1326h-2.5192v-10.463h7.2789c.5834-.0617 1.1735.0002 1.7309.1815.5584.1815 1.0715.4783 1.5073.8713.5752.7494.8548 1.6837.7865 2.6257.0586.8568-.1767 1.708-.6675 2.4127zm-2.0657-3.4113c-.2663-.3995-.8406-.6214-1.8126-.6214h-4.2519v3.185h4.2244c1.0395 0 1.5872-.2131 1.8401-.6267.1501-.2914.2149-.6196.1865-.9463.0221-.3407-.0418-.6814-.1865-.9906z"/><path d="m99.6733 24.3187c-4.7455 0-6.1977-1.7754-6.1977-3.5321h2.6923c0 .8664 1.1859 1.5197 3.6252 1.5197 2.4249 0 3.0649-.427 3.0649-1.1202 0-.7732-.479-1.0129-2.732-1.2658-.4438-.04-1.6519-.1865-2.1055-.253-3.1957-.3604-4.426-1.3067-4.426-2.9995 0-1.786 1.8002-3.1317 5.7051-3.1317 4.2384 0 5.8644 1.6662 5.8644 3.3989h-2.663c0-.8797-.999-1.3865-3.3585-1.3865-2.426 0-2.9453.3329-2.9453.9862 0 .6799.5326.893 3.1068 1.1992.5868.0808 1.893.2273 2.252.2663 2.72.2796 3.946 1.2658 3.946 3.0119-.005 2.0798-1.871 3.3066-5.8287 3.3066z"/><path d="m113.082 24.3055c-3.478 0-5.744-1.3732-5.744-4.2608v-6.3487h2.545v6.3842c0 1.3199 1.08 2.1987 3.306 2.1987 2.012 0 3.212-.8255 3.212-2.1987v-6.3842h2.519v6.5857c0 2.6248-2.106 4.0238-5.838 4.0238z"/><path d="m132.715 24.159v-6.9842l-3.266 6.9842h-2.478l-3.173-6.9842v6.9842h-2.397v-10.463h3.247l3.599 7.9704 3.679-7.9704h3.195v10.463z"/></g></svg>

<svg width="146" height="38" viewBox="0 0 146 38" fill="none" xmlns="http://www.w3.org/2000/svg">
<path d="M27.2804 16.2153C30.0659 16.2153 30.6926 17.4252 30.6926 18.9343C30.6926 20.5338 29.9345 21.6798 27.2919 21.6798C24.6662 21.6798 23.9072 20.6004 23.9072 18.9343C23.9072 17.2947 24.7345 16.2153 27.2804 16.2153Z" fill="#F4F4F4"/>
<path d="M56.3898 16.2153C59.1753 16.2153 59.802 17.4252 59.802 18.9343C59.802 20.5338 59.043 21.6798 56.4013 21.6798C53.7764 21.6798 53.0166 20.6004 53.0166 18.9343C53.0166 17.2947 53.8439 16.2153 56.3898 16.2153Z" fill="#F4F4F4"/>
<path fill-rule="evenodd" clip-rule="evenodd" d="M2.61719 34.662V3.19141H143.382V34.662H2.61719ZM69.7056 32.8866H141.607V4.96675H69.7056V32.8866ZM27.2929 24.3588C32.2381 24.3588 34.317 22.2257 34.317 18.8943C34.317 15.5087 31.9753 13.4964 27.2929 13.4964C22.6823 13.4964 20.2554 15.6818 20.2554 18.8943C20.2554 22.5195 22.8013 24.3588 27.2929 24.3588ZM10.0996 13.736V24.199H20.0805V21.4126H13.7106V13.736H10.0996ZM45.4874 24.199L45.3942 23.1853C44.1862 24.0474 42.7159 24.4623 41.2355 24.3588C39.0101 24.3588 37.1567 23.6922 36.1172 22.3464C35.4316 21.364 35.0854 20.1846 35.131 18.9875C35.092 17.8155 35.4502 16.6647 36.1474 15.7218C37.1993 14.416 39.106 13.5496 41.9448 13.5496C45.2105 13.5496 47.1296 14.5491 47.9552 16.2286C48.1324 16.6242 48.2365 17.0485 48.2623 17.4811H44.8075C44.7204 17.2182 44.5584 16.9865 44.3415 16.8145C43.6533 16.3582 42.8315 16.1472 42.0087 16.2153C41.526 16.1568 41.0364 16.2014 40.5723 16.3461C40.1083 16.4909 39.6801 16.7326 39.3164 17.055C38.9032 17.6205 38.7093 18.3166 38.7704 19.0141C38.7225 19.6796 38.9008 20.3418 39.2764 20.8933C39.6435 21.2354 40.0799 21.4944 40.5558 21.6531C41.0319 21.8117 41.5363 21.8663 42.0353 21.813C43.0262 21.8936 44.01 21.5879 44.7809 20.9599C44.9464 20.7529 45.0606 20.5095 45.1137 20.2498H41.3962V18.0013H48.3529V24.199H45.4874ZM56.4031 24.3588C61.3475 24.3588 63.4273 22.2257 63.4273 18.8943C63.4273 15.5087 61.082 13.4964 56.4031 13.4964C51.7926 13.4964 49.3657 15.6818 49.3657 18.8943C49.3657 22.5195 51.9115 24.3588 56.4031 24.3588Z" fill="#F4F4F4"/>
<path d="M75.7891 24.159V13.696H78.3633V24.159H75.7891Z" fill="#F4F4F4"/>
<path d="M91.5824 19.7872C90.9299 20.6403 89.807 21.03 88.2243 21.0397C87.8905 21.0397 83.4655 21.0264 83.4655 21.0264V24.159H80.9463V13.696H88.2252C88.8086 13.6343 89.3987 13.6962 89.9561 13.8775C90.5145 14.059 91.0276 14.3558 91.4634 14.7488C92.0386 15.4982 92.3182 16.4325 92.2499 17.3745C92.3085 18.2313 92.0732 19.0825 91.5824 19.7872ZM89.5167 16.3759C89.2504 15.9764 88.6761 15.7545 87.7041 15.7545H83.4522V18.9395H87.6766C88.7161 18.9395 89.2638 18.7264 89.5167 18.3128C89.6668 18.0214 89.7316 17.6932 89.7032 17.3665C89.7253 17.0258 89.6614 16.6851 89.5167 16.3759Z" fill="#F4F4F4"/>
<path d="M99.6733 24.3187C94.9278 24.3187 93.4756 22.5433 93.4756 20.7866H96.1679C96.1679 21.653 97.3538 22.3063 99.7931 22.3063C102.218 22.3063 102.858 21.8793 102.858 21.1861C102.858 20.4129 102.379 20.1732 100.126 19.9203C99.6822 19.8803 98.4741 19.7338 98.0205 19.6673C94.8248 19.3069 93.5945 18.3606 93.5945 16.6678C93.5945 14.8818 95.3947 13.5361 99.2996 13.5361C103.538 13.5361 105.164 15.2023 105.164 16.935H102.501C102.501 16.0553 101.502 15.5485 99.1425 15.5485C96.7165 15.5485 96.1972 15.8814 96.1972 16.5347C96.1972 17.2146 96.7298 17.4277 99.304 17.7339C99.8908 17.8147 101.197 17.9612 101.556 18.0002C104.276 18.2798 105.502 19.266 105.502 21.0121C105.497 23.0919 103.631 24.3187 99.6733 24.3187Z" fill="#F4F4F4"/>
<path d="M113.082 24.3055C109.604 24.3055 107.338 22.9323 107.338 20.0447V13.696H109.883V20.0802C109.883 21.4001 110.963 22.2789 113.189 22.2789C115.201 22.2789 116.401 21.4534 116.401 20.0802V13.696H118.92V20.2817C118.92 22.9065 116.814 24.3055 113.082 24.3055Z" fill="#F4F4F4"/>
<path d="M132.715 24.159V17.1748L129.449 24.159H126.971L123.798 17.1748V24.159H121.401V13.696H124.648L128.247 21.6664L131.926 13.696H135.121V24.159H132.715Z" fill="#F4F4F4"/>
</svg>
